X: 1
T:Polka
R:Polka
M:2/4
O:France
K:G
g3f g2e2|f3ec4|f3e f2d2|e3dB4|\
g3f g2e2|f3ec4|f3e d2ef|g8::\
g3e d2B2|c3AF4|F3A c2A2|B3AG4|\
G3B d2B2|c3AF4|FAcA FDEF|G8:|
